X:1
T:Missa Assumpta Est Maria
T:Oliver Hayes
T:Missa Assumpta Est Maria The Swynnerton Mass Kyrie
C:Oliver Hayes
%%score 1 { ( 2 3 ) | ( 4 5 ) }
L:1/8
Q:1/4=88
M:4/4
K:F
V:1 treble nm="MusicXML Part"
V:2 treble nm="MusicXML Part"
V:3 treble 
V:4 bass 
V:5 bass 
V:1
"^Reflective" c3 B A2 G2 | A2 F2 F4 | B3 A G2 F2 | G2 C2 C4 | F3 G A2 B2 | A4 G4 |1 F8 ||1 F8- || %8
w: Ky- ri- e e-|le- i- son,|Ky- ri- e e-|le- i- son,|Ky- ri- e e-|le- i-|son.|son.|
 F8!fine! |] B4 A3 G | B2 A2 G4 | A4 G3 F | A2 G2 F4 | (E3 F) G2 A2 | (B2 A2) G4 | A8!D.C.! |] %16
w: _|Chri- ste e-|le- i- son,|Chri- ste e-|le- i- son,|Chri- * ste e-|le- * i-|son.|
V:2
 c3 B A2 G2 | A2 F2 F4 | B3 A G2 F2 | G2 C2 C4 | F3 G A2 B2 | A4 G4 |1 F8 ||1 F8- || F8 |] %9
 B4 A3 G | B2 A2 G4 | A4 G3 F | A2 G2 F4 | E3 F G2 A2 | B2 A2 G4 | A8 |] %16
V:3
 F6 G2 | C4 C4 | E4 E4 | C4 C4 | D6 D2 | F4 E4 |1 C8 ||1 D4 C2 B,2 || C8 |] D4 D4 | D4 D4 | F4 F4 | %12
 F4 F4 | E3 F E4 | G4 E4 | F8 |] %16
V:4
 A,4 C2 C2 | A,4 A,4 | C4 C4 | G,4 [E,G,]4 | F,6 F,2 | C6 B,2 |1 A,8 ||1 B,4 A,2 G,2 || A,8 |] %9
 B,4 B,4 | B,4 B,4 | D4 D4 | D4 A,4 | C4 C4 | B,4 B,4 | x8 |] %16
V:5
 F,6 E,2 | F,4 F,4 | C,4 C,4 | E,4 C,4 | D,6 B,,2 | C,4 C,4 |1 F,8 ||1 F,8 || F,,8 |] %9
 G,,2 B,,2 D,2 F,2 | G,4 G,4 | D,2 F,2 A,2 C2 | D4 D,4 | A,2 C2 B,2 A,2 | G,4 G,4 | [F,C]8 |] %16

